;FLAVOR:Marlin
;TIME:3669
;Filament used: 14.083m
;Layer height: 0.28
;MINX:90.177
;MINY:59.644
;MINZ:0.28
;MAXX:209.823
;MAXY:182.165
;MAXZ:8.32
;Exported with Cura-DuetRRF v1.2.9 plugin by Thomas Kriechbaumer
;Generated with Cura_SteamEngine 5.2.1
M82 ;absolute extrusion mode
G21 ;metric values
G90 ;absolute positioning
M82 ;set extruder to absolute mode
M107 ;start with the fan off
G92 E0 ;zero the extruded length
G28
G1 X10 Y5 Z1 F1000
M104 S170 T0; start preheat hotend_0
M140 S60 ; start preheating the bed
M190 S60 ; heat to Cura Bed setting
G1 X10 Y5 Z1 F1000
M109 S195 T0
G1 X120 Y5 Z0.28 E30 F500 ;intro line
G92 E0 ;zero the extruded length again
M117 Printing...
G92 E0
G92 E0
G1 F1800 E-1
;LAYER_COUNT:29
;LAYER:0
M107
G1 F600 Z0.48
G0 F7200 X91.447 Y61.818 Z0.48
;TYPE:SKIRT
G1 F600 Z0.28
G1 F720 E0
G1 F1800 X91.855 Y61.35 E0.05363
G1 X92.319 Y60.938 E0.10723
G1 X92.867 Y60.569 E0.16429
G1 X93.248 Y60.349 E0.20229
G1 X93.805 Y60.074 E0.25595
G1 X94.416 Y59.866 E0.3117
G1 X94.637 Y59.807 E0.33146
G1 X95.246 Y59.686 E0.38509
G1 X95.881 Y59.644 E0.44006
G1 X204.123 Y59.645 E9.78963
G1 X204.743 Y59.685 E9.8433
G1 X205.368 Y59.809 E9.89833
G1 X205.585 Y59.867 E9.91774
G1 X206.174 Y60.065 E9.97141
G1 X206.752 Y60.349 E10.02704
G1 X207.133 Y60.569 E10.06504
G1 X207.649 Y60.914 E10.11865
G1 X208.117 Y61.322 E10.17228
G1 X208.529 Y61.786 E10.22588
G1 X208.898 Y62.334 E10.28295
G1 X209.118 Y62.715 E10.32095
G1 X209.393 Y63.272 E10.3746
G1 X209.601 Y63.883 E10.43035
G1 X209.66 Y64.104 E10.45011
G1 X209.781 Y64.713 E10.50374
G1 X209.823 Y65.348 E10.55871
G1 X209.823 Y116.474 E14.9748
G1 X209.793 Y117.157 E15.03385
G1 X209.74 Y117.649 E15.0766
G1 X209.674 Y118.064 E15.11289
G1 X209.567 Y118.565 E15.15714
G1 X209.458 Y118.968 E15.1932
G1 X209.3 Y119.45 E15.23702
G1 X209.149 Y119.84 E15.27314
G1 X208.944 Y120.297 E15.3164
G1 X208.753 Y120.67 E15.3526
G1 X208.668 Y120.817 E15.36727
G1 X208.919 Y121.436 E15.42496
G1 X209.074 Y122.037 E15.47857
G1 X209.159 Y122.939 E15.55683
G1 X209.163 Y174.002 E19.96748
G1 X209.133 Y174.664 E20.02472
G1 X209.064 Y175.248 E20.07551
G1 X208.994 Y175.636 E20.10957
G1 X208.868 Y176.164 E20.15646
G1 X208.756 Y176.538 E20.19018
G1 X208.55 Y177.097 E20.24164
G1 X208.392 Y177.456 E20.27552
G1 X208.145 Y177.942 E20.32261
G1 X207.948 Y178.28 E20.3564
G1 X207.603 Y178.793 E20.4098
G1 X207.319 Y179.162 E20.45002
G1 X206.907 Y179.63 E20.50387
G1 X206.63 Y179.907 E20.53771
G1 X206.209 Y180.282 E20.58641
G1 X205.9 Y180.526 E20.62042
G1 X205.445 Y180.845 E20.66842
G1 X205.113 Y181.05 E20.70212
G1 X204.607 Y181.322 E20.75174
G1 X204.251 Y181.487 E20.78563
G1 X203.654 Y181.717 E20.84089
G1 X203.21 Y181.855 E20.88106
G1 X202.621 Y181.998 E20.93341
G1 X202.232 Y182.067 E20.96753
G1 X201.686 Y182.132 E21.01503
G1 X201.296 Y182.156 E21.04878
G1 X201 Y182.165 E21.07436
G1 X99 Y182.165 E29.88477
G1 X98.717 Y182.157 E29.90922
G1 X98.326 Y182.134 E29.94306
G1 X97.767 Y182.068 E29.99168
G1 X97.378 Y181.999 E30.0258
G1 X96.825 Y181.867 E30.07491
G1 X96.451 Y181.754 E30.10866
G1 X95.903 Y181.551 E30.15913
G1 X95.544 Y181.393 E30.19301
G1 X95.053 Y181.143 E30.2406
G1 X94.716 Y180.946 E30.27432
G1 X94.207 Y180.603 E30.32734
G1 X93.837 Y180.318 E30.36768
G1 X93.37 Y179.907 E30.42141
G1 X93.093 Y179.63 E30.45525
G1 X92.717 Y179.207 E30.50414
G1 X92.474 Y178.899 E30.53802
G1 X92.153 Y178.44 E30.5864
G1 X91.948 Y178.107 E30.62018
G1 X91.677 Y177.602 E30.66969
G1 X91.512 Y177.245 E30.70366
G1 X91.297 Y176.695 E30.75466
G1 X91.178 Y176.324 E30.78832
G1 X91.034 Y175.757 E30.83885
G1 X90.946 Y175.297 E30.8793
G1 X90.868 Y174.676 E30.93336
G1 X90.845 Y174.288 E30.96694
G1 X90.837 Y174.003 E30.99156
G1 X90.841 Y122.939 E35.4023
G1 X90.881 Y122.319 E35.45596
G1 X91 Y121.71 E35.50956
G1 X91.332 Y120.817 E35.59185
G1 X91.236 Y120.65 E35.60849
G1 X91.049 Y120.283 E35.64407
G1 X90.84 Y119.814 E35.68842
G1 X90.688 Y119.416 E35.72522
G1 X90.535 Y118.943 E35.76816
G1 X90.427 Y118.54 E35.8042
G1 X90.321 Y118.039 E35.84843
G1 X90.257 Y117.631 E35.8841
G1 X90.206 Y117.139 E35.92683
G1 X90.177 Y116.468 E35.98484
G1 X90.178 Y65.344 E40.40076
G1 X90.218 Y64.724 E40.45442
G1 X90.342 Y64.099 E40.50946
G1 X90.4 Y63.882 E40.52886
G1 X90.598 Y63.293 E40.58253
G1 X90.882 Y62.715 E40.63816
G1 X91.102 Y62.334 E40.67616
G1 X91.447 Y61.818 E40.72978
G0 F7200 X92.064 Y62.232
G1 F1800 X92.447 Y61.808 E40.77913
G1 X92.885 Y61.441 E40.82849
G1 X93.238 Y61.212 E40.86483
G1 X93.619 Y60.992 E40.90284
G1 X94.133 Y60.742 E40.95221
G1 X94.607 Y60.583 E40.99539
G1 X94.828 Y60.524 E41.01515
G1 X95.389 Y60.416 E41.0645
G1 X95.881 Y60.386 E41.10707
G1 X204.123 Y60.387 E50.45664
G1 X204.693 Y60.427 E50.506
G1 X205.177 Y60.525 E50.54865
G1 X205.394 Y60.583 E50.56806
G1 X205.934 Y60.769 E50.61739
G1 X206.381 Y60.992 E50.66054
G1 X206.762 Y61.212 E50.69854
G1 X207.235 Y61.531 E50.74782
G1 X207.659 Y61.914 E50.79717
G1 X208.026 Y62.352 E50.84653
G1 X208.255 Y62.705 E50.88288
G1 X208.475 Y63.086 E50.92088
G1 X208.725 Y63.6 E50.97025
G1 X208.884 Y64.074 E51.01343
G1 X208.943 Y64.295 E51.03319
G1 X209.051 Y64.856 E51.08254
G1 X209.081 Y65.348 E51.12511
G1 X209.081 Y116.474 E55.5412
G1 X209.052 Y117.116 E55.59671
G1 X209.007 Y117.532 E55.63285
G1 X208.941 Y117.947 E55.66915
G1 X208.85 Y118.372 E55.70669
G1 X208.741 Y118.775 E55.74275
G1 X208.608 Y119.182 E55.77974
G1 X208.457 Y119.572 E55.81586
G1 X208.283 Y119.959 E55.85251
G1 X208.092 Y120.332 E55.88871
G1 X207.812 Y120.803 E55.93604
G1 X207.943 Y121.023 E55.95816
G1 X208.018 Y121.18 E55.97318
G1 X208.228 Y121.711 E56.02251
G1 X208.361 Y122.266 E56.0718
G1 X208.417 Y122.939 E56.13014
G1 X208.421 Y174.002 E60.54078
G1 X208.393 Y174.622 E60.59439
G1 X208.334 Y175.117 E60.63745
G1 X208.264 Y175.505 E60.67151
G1 X208.157 Y175.951 E60.71112
G1 X208.045 Y176.325 E60.74484
G1 X207.871 Y176.798 E60.78838
G1 X207.713 Y177.157 E60.82226
G1 X207.504 Y177.568 E60.86208
G1 X207.307 Y177.906 E60.89588
G1 X207.015 Y178.34 E60.94106
G1 X206.731 Y178.709 E60.98128
G1 X206.383 Y179.106 E61.02688
G1 X206.106 Y179.383 E61.06072
G1 X205.749 Y179.7 E61.10196
G1 X205.44 Y179.944 E61.13596
G1 X205.055 Y180.213 E61.17653
G1 X204.723 Y180.418 E61.21024
G1 X204.295 Y180.649 E61.25225
G1 X203.939 Y180.814 E61.28614
G1 X203.434 Y181.008 E61.33287
G1 X202.99 Y181.146 E61.37303
G1 X202.492 Y181.267 E61.41729
G1 X202.103 Y181.336 E61.45142
G1 X201.641 Y181.391 E61.49161
G1 X201 Y181.423 E61.54704
G1 X99 Y181.423 E70.35745
G1 X98.369 Y181.393 E70.41202
G1 X97.896 Y181.337 E70.45316
G1 X97.507 Y181.268 E70.48728
G1 X97.04 Y181.157 E70.52875
G1 X96.666 Y181.044 E70.56249
G1 X96.202 Y180.872 E70.60524
G1 X95.843 Y180.714 E70.63912
G1 X95.427 Y180.502 E70.67945
G1 X95.09 Y180.305 E70.71316
G1 X94.66 Y180.015 E70.75796
G1 X94.29 Y179.73 E70.7983
G1 X93.894 Y179.383 E70.84378
G1 X93.617 Y179.106 E70.87762
G1 X93.299 Y178.748 E70.91898
G1 X93.056 Y178.44 E70.95287
G1 X92.785 Y178.051 E70.99382
G1 X92.58 Y177.718 E71.0276
G1 X92.351 Y177.291 E71.06945
G1 X92.186 Y176.934 E71.10342
G1 X92.004 Y176.468 E71.14663
G1 X91.885 Y176.097 E71.18028
G1 X91.763 Y175.618 E71.22298
G1 X91.675 Y175.158 E71.26343
G1 X91.609 Y174.632 E71.30922
G1 X91.579 Y174.003 E71.36362
G1 X91.583 Y122.939 E75.77435
G1 X91.623 Y122.369 E75.82371
G1 X91.742 Y121.811 E75.87299
G1 X91.982 Y121.18 E75.9313
G1 X92.057 Y121.023 E75.94633
G1 X92.185 Y120.797 E75.96876
G1 X92.106 Y120.676 E75.98125
G1 X91.897 Y120.313 E76.01743
G1 X91.71 Y119.946 E76.053
G1 X91.534 Y119.549 E76.09051
G1 X91.382 Y119.151 E76.12731
G1 X91.252 Y118.751 E76.16364
G1 X91.144 Y118.348 E76.19968
G1 X91.054 Y117.924 E76.23712
G1 X90.99 Y117.516 E76.27279
G1 X90.947 Y117.1 E76.30892
G1 X90.919 Y116.468 E76.36356
G1 X90.92 Y65.344 E80.77948
G1 X90.96 Y64.774 E80.82883
G1 X91.058 Y64.29 E80.87149
G1 X91.116 Y64.073 E80.89089
G1 X91.302 Y63.533 E80.94022
G1 X91.525 Y63.086 E80.98337
G1 X91.745 Y62.705 E81.02137
G1 X92.064 Y62.232 E81.07065
G0 F7200 X92.68 Y62.65
G1 F1800 X93.034 Y62.275 E81.1152
G1 X93.609 Y61.854 E81.17675
G1 X93.99 Y61.634 E81.21475
G1 X94.456 Y61.412 E81.25934
G1 X94.799 Y61.3 E81.29051
G1 X95.02 Y61.241 E81.31026
G1 X95.528 Y61.147 E81.35489
G1 X95.881 Y61.128 E81.38542
G1 X204.123 Y61.129 E90.735
G1 X204.638 Y61.169 E90.77961
G1 X204.985 Y61.242 E90.81024
G1 X205.202 Y61.3 E90.82964
G1 X205.689 Y61.472 E90.87426
G1 X206.01 Y61.634 E90.90531
G1 X206.391 Y61.854 E90.94332
G1 X206.817 Y62.147 E90.98798
G1 X207.192 Y62.501 E91.03252
G1 X207.613 Y63.076 E91.09408
G1 X207.833 Y63.457 E91.13208
G1 X208.055 Y63.923 E91.17666
G1 X208.167 Y64.266 E91.20783
G1 X208.226 Y64.487 E91.22759
G1 X208.32 Y64.995 E91.27221
G1 X208.339 Y65.348 E91.30275
G1 X208.339 Y116.474 E95.71884
G1 X208.311 Y117.075 E95.7708
G1 X208.275 Y117.415 E95.80034
G1 X208.209 Y117.83 E95.83663
G1 X208.134 Y118.178 E95.86738
G1 X208.025 Y118.581 E95.90344
G1 X207.916 Y118.915 E95.93379
G1 X207.765 Y119.305 E95.96991
G1 X207.623 Y119.621 E95.99984
G1 X207.432 Y119.994 E96.03603
G1 X207.258 Y120.295 E96.06607
G1 X207.03 Y120.645 E96.10215
G1 X206.927 Y120.787 E96.1173
G1 X207.045 Y120.938 E96.13385
G1 X207.274 Y121.343 E96.17404
G1 X207.349 Y121.5 E96.18907
G1 X207.535 Y121.982 E96.23369
G1 X207.644 Y122.486 E96.27823
G1 X207.675 Y122.939 E96.31745
G1 X207.679 Y174.002 E100.7281
G1 X207.652 Y174.58 E100.77808
G1 X207.604 Y174.985 E100.81331
G1 X207.534 Y175.373 E100.84736
G1 X207.447 Y175.738 E100.87977
G1 X207.335 Y176.112 E100.9135
G1 X207.192 Y176.499 E100.94913
G1 X207.034 Y176.858 E100.98301
G1 X206.863 Y177.194 E101.01558
G1 X206.666 Y177.532 E101.04937
G1 X206.427 Y177.888 E101.08641
G1 X206.143 Y178.257 E101.12663
G1 X205.858 Y178.581 E101.1639
G1 X205.581 Y178.858 E101.19774
G1 X205.289 Y179.118 E101.23151
G1 X204.98 Y179.362 E101.26552
G1 X204.665 Y179.582 E101.2987
G1 X204.333 Y179.787 E101.33241
G1 X203.983 Y179.975 E101.36672
G1 X203.627 Y180.14 E101.40062
G1 X203.214 Y180.3 E101.43887
G1 X202.77 Y180.438 E101.47903
G1 X202.362 Y180.537 E101.5153
G1 X201.973 Y180.606 E101.54942
G1 X201.595 Y180.651 E101.5823
G1 X201 Y180.681 E101.63376
G1 X99 Y180.681 E110.44417
G1 X98.413 Y180.652 E110.49494
G1 X98.026 Y180.607 E110.52859
G1 X97.637 Y180.538 E110.56272
G1 X97.254 Y180.446 E110.59674
G1 X96.88 Y180.333 E110.63049
G1 X96.501 Y180.193 E110.66539
G1 X96.142 Y180.035 E110.69927
G1 X95.802 Y179.862 E110.73222
G1 X95.465 Y179.665 E110.76593
G1 X95.112 Y179.427 E110.80271
G1 X94.742 Y179.142 E110.84305
G1 X94.419 Y178.858 E110.8802
G1 X94.142 Y178.581 E110.91404
G1 X93.882 Y178.288 E110.94787
G1 X93.639 Y177.98 E110.98176
G1 X93.417 Y177.662 E111.01526
G1 X93.212 Y177.329 E111.04904
G1 X93.024 Y176.98 E111.08328
G1 X92.859 Y176.623 E111.11725
G1 X92.711 Y176.242 E111.15255
G1 X92.592 Y175.871 E111.18621
G1 X92.491 Y175.478 E111.22126
G1 X92.403 Y175.018 E111.26171
G1 X92.35 Y174.589 E111.29905
G1 X92.321 Y174.003 E111.34973
G1 X92.325 Y122.939 E115.76046
G1 X92.365 Y122.424 E115.80508
G1 X92.484 Y121.921 E115.84972
G1 X92.651 Y121.5 E115.88884
G1 X92.726 Y121.343 E115.90387
G1 X92.984 Y120.895 E115.94853
G1 X93.073 Y120.785 E115.96075
G1 X92.956 Y120.624 E115.97794
G1 X92.729 Y120.273 E116.01405
G1 X92.558 Y119.976 E116.04365
G1 X92.371 Y119.609 E116.07923
G1 X92.227 Y119.284 E116.10993
G1 X92.075 Y118.886 E116.14673
G1 X91.969 Y118.559 E116.17642
G1 X91.861 Y118.156 E116.21246
G1 X91.787 Y117.809 E116.24311
G1 X91.723 Y117.401 E116.27878
G1 X91.688 Y117.06 E116.30839
G1 X91.661 Y116.468 E116.35958
G1 X91.662 Y65.344 E120.77549
G1 X91.702 Y64.829 E120.82011
G1 X91.775 Y64.482 E120.85074
G1 X91.833 Y64.265 E120.87014
G1 X92.005 Y63.778 E120.91475
G1 X92.167 Y63.457 E120.94581
G1 X92.387 Y63.076 E120.98381
G1 X92.68 Y62.65 E121.02847
G0 F7200 X93.291 Y63.075
G1 F1800 X93.614 Y62.753 E121.06787
G1 X93.98 Y62.497 E121.10645
G1 X94.361 Y62.277 E121.14445
G1 X94.99 Y62.017 E121.20324
G1 X95.211 Y61.958 E121.223
G1 X95.881 Y61.87 E121.28137
G1 X204.123 Y61.871 E130.63094
G1 X204.794 Y61.959 E130.68939
G1 X205.011 Y62.017 E130.7088
G1 X205.639 Y62.277 E130.76751
G1 X206.02 Y62.497 E130.80551
G1 X206.392 Y62.758 E130.84476
G1 X206.714 Y63.081 E130.88415
G1 X206.97 Y63.447 E130.92273
G1 X207.19 Y63.828 E130.96074
G1 X207.45 Y64.457 E131.01953
G1 X207.509 Y64.678 E131.03928
G1 X207.597 Y65.348 E131.09765
G1 X207.597 Y116.474 E135.51374
G1 X207.57 Y117.034 E135.56217
G1 X207.542 Y117.299 E135.58519
G1 X207.476 Y117.714 E135.62148
G1 X207.418 Y117.984 E135.64534
G1 X207.309 Y118.387 E135.6814
G1 X207.224 Y118.647 E135.70502
G1 X207.073 Y119.037 E135.74115
G1 X206.963 Y119.283 E135.76442
G1 X206.772 Y119.656 E135.80062
G1 X206.636 Y119.89 E135.824
G1 X206.408 Y120.24 E135.86008
G1 X206.253 Y120.453 E135.88283
G1 X205.955 Y120.817 E135.92347
G1 X206.25 Y121.112 E135.9595
G1 X206.604 Y121.663 E136.01607
G1 X206.679 Y121.82 E136.0311
G1 X206.839 Y122.246 E136.07041
G1 X206.921 Y122.694 E136.10975
G1 X206.933 Y122.939 E136.13093
G1 X206.937 Y174.002 E140.54158
G1 X206.911 Y174.538 E140.58793
G1 X206.874 Y174.853 E140.61533
G1 X206.804 Y175.241 E140.64938
G1 X206.736 Y175.525 E140.67461
G1 X206.624 Y175.899 E140.70833
G1 X206.513 Y176.2 E140.73604
G1 X206.355 Y176.559 E140.76992
G1 X206.222 Y176.821 E140.7953
G1 X206.025 Y177.159 E140.82909
G1 X205.839 Y177.435 E140.85784
G1 X205.555 Y177.804 E140.89806
G1 X205.333 Y178.056 E140.92707
G1 X205.056 Y178.333 E140.96091
G1 X204.829 Y178.535 E140.98715
G1 X204.52 Y178.779 E141.02116
G1 X204.275 Y178.951 E141.04702
G1 X203.943 Y179.156 E141.08072
G1 X203.671 Y179.302 E141.10739
G1 X203.315 Y179.467 E141.14128
G1 X202.994 Y179.591 E141.171
G1 X202.55 Y179.729 E141.21116
G1 X202.233 Y179.806 E141.23934
G1 X201.844 Y179.875 E141.27347
G1 X201.55 Y179.91 E141.29904
G1 X201 Y179.939 E141.34661
G1 X98.847 Y179.935 E150.17024
G1 X98.456 Y179.912 E150.20407
G1 X98.155 Y179.876 E150.23026
G1 X97.766 Y179.807 E150.26438
G1 X97.469 Y179.736 E150.29076
G1 X97.095 Y179.623 E150.3245
G1 X96.8 Y179.514 E150.35167
G1 X96.441 Y179.356 E150.38555
G1 X96.176 Y179.221 E150.41124
G1 X95.839 Y179.024 E150.44496
G1 X95.565 Y178.839 E150.47351
G1 X95.195 Y178.554 E150.51385
G1 X94.944 Y178.333 E150.54274
G1 X94.667 Y178.056 E150.57658
G1 X94.464 Y177.829 E150.60288
G1 X94.221 Y177.521 E150.63677
G1 X94.048 Y177.273 E150.66289
G1 X93.843 Y176.94 E150.69666
G1 X93.698 Y176.669 E150.72321
G1 X93.533 Y176.312 E150.75718
G1 X93.417 Y176.015 E150.78472
G1 X93.298 Y175.644 E150.81838
G1 X93.22 Y175.339 E150.84557
G1 X93.132 Y174.879 E150.88602
G1 X93.091 Y174.545 E150.91509
G1 X93.063 Y174.003 E150.96197
G1 X93.067 Y122.939 E155.3727
G1 X93.107 Y122.485 E155.41207
G1 X93.226 Y122.046 E155.45136
G1 X93.396 Y121.663 E155.48755
G1 X93.627 Y121.27 E155.52693
G1 X93.924 Y120.925 E155.56625
G1 X94.054 Y120.826 E155.58036
G1 X93.739 Y120.442 E155.62326
G1 X93.579 Y120.221 E155.64683
G1 X93.352 Y119.87 E155.68294
G1 X93.219 Y119.639 E155.70596
G1 X93.032 Y119.272 E155.74154
G1 X92.92 Y119.02 E155.76536
G1 X92.768 Y118.622 E155.80216
G1 X92.686 Y118.367 E155.82529
G1 X92.578 Y117.964 E155.86133
G1 X92.52 Y117.694 E155.88519
G1 X92.456 Y117.286 E155.92086
G1 X92.429 Y117.021 E155.94387
G1 X92.403 Y116.468 E155.99169
G1 X92.404 Y65.344 E160.4076
G1 X92.492 Y64.673 E160.46606
G1 X92.55 Y64.456 E160.48546
G1 X92.81 Y63.828 E160.54417
G1 X93.03 Y63.447 E160.58217
G1 X93.291 Y63.075 E160.62142
G0 F7200 X93.898 Y63.507
G1 F1800 X94.184 Y63.249 E160.65469
G1 X94.351 Y63.14 E160.67192
G1 X94.732 Y62.92 E160.70992
G1 X95.182 Y62.734 E160.75198
G1 X95.403 Y62.675 E160.77174
G1 X95.881 Y62.612 E160.81338
G1 X204.123 Y62.613 E170.16295
G1 X204.602 Y62.676 E170.20468
G1 X204.819 Y62.734 E170.22409
G1 X205.268 Y62.92 E170.26607
G1 X205.649 Y63.14 E170.30407
G1 X205.96 Y63.365 E170.33722
G1 X206.218 Y63.651 E170.37049
G1 X206.327 Y63.818 E170.38772
G1 X206.547 Y64.199 E170.42572
G1 X206.733 Y64.649 E170.46778
G1 X206.792 Y64.87 E170.48754
G1 X206.855 Y65.348 E170.52918
G1 X206.855 Y116.474 E174.94527
G1 X206.829 Y116.993 E174.99016
G1 X206.809 Y117.182 E175.00657
G1 X206.743 Y117.597 E175.04287
G1 X206.702 Y117.79 E175.05991
